X:634
T:Miss Grant of Grant
R:Reel
C:Daniel Dow
B:The Athole Collection
M:C|
L:1/8
K:F
c|AFF>C ~F2 Ac|dfcf AGGc|AFF>C DEFd|cAfc AFF:|
c|A>cfc Afcf|dfcf AGGB|A>cfc Afcf|egce f2 f>c|A>cfc Afcf|dfcA G>ABd|
cAFC D>EFd|c<Af>c AF~F||

